X:1
T:Air for Linda
T:Air for Linda
T:Nigel Gatherer
C:Nigel Gatherer
%%score 1 2
L:1/8
M:4/4
K:Bmin
V:1 treble 
V:2 treble 
V:1
 FA | B2 c2 dBAF | Ddcd eAAe | fBFB cAAf | gBed cAFA | B2 c2 dBAF | Ddcd eAAe | fBdf egfe | %8
 dBBA B2 :| ag | fgfe d2 fd | efed cdec | dBBA FB (3Bcd | cAAf eAce | fgfe da a2 | efed ca a2 | %16
 dBcA FBce | dBBA B2 :| %18
V:2
 F2 | G2 F2 B2 C2 | d2 A2 c2 A_B | =B2 Bd eccA | B2 G2 F2 F2 | G2 F2 B2 C2 | d2 A2 c2 A_B | %7
 =BFBd c2 A2 | B2 FE D2 :| c2 | d4 A4 | c2 A2 _B2 F2 | BFFE D2 F2 | A2 E^G A2 A2 | d2 Ac d2 A2 | %15
 cdcB A2 c2 | B2 F2 B,DEG | F2 FE D2 :| %18

